!!!OTL: FunÅ fangshao
!!!ARE: Asia, China,ˇHubei Zhushan
!! I, 427, 2)
!!!SCT: C2170
!!!YEM: Copyright 1995, estate of Helmut Schaffrath.
**kern
*ICvox
*Ivox
*M2/4
*k[f#]
*G:
{8a
16a
16a
8b
8b
=1
8a
4a
8g
=2
8g
16g
16g
16a
16b
8g
=3
8e
4.e}
=4
{8e
16e
16g
8a
8a
=5
8e
16g
16e
4d
=6
8e
16d
16e
8g
8e
=7
2d}
==
!!!AGN: Xiaodiao
!!!ONB: ESAC (Essen Associative Code) Database: SENGANSU
!!!AMT: simple duple
!!!AIN: vox
!!!EED: Helmut Schaffrath
!!!EEV: 1.0
*-
